Papirus-Dark/symbolic/mimetypes/text-x-systemd-unit-symbolic.svg

<svg xmlns="http://www.w3.org/2000/svg" height="16" width="16" version="1.1">
 <path style="fill:#dfdfdf" d="m4 13v-2h-2v-6h2v-2h-4v10z"/>
 <path style="fill:#dfdfdf" d="m12 13v-2h2v-6h-2v-2h4v10z"/>
 <path style="fill:#dfdfdf" d="m7 8a2 2 0 0 1 -2 2 2 2 0 0 1 -2 -2 2 2 0 0 1 2 -2 2 2 0 0 1 2 2z"/>
 <path style="fill:#dfdfdf" d="m13 6v4l-4-2z"/>
</svg>

<svg xmlns="http://www.w3.org/2000/svg" width="16" height="16" version="1.1">
 <path style="fill:#dfdfdf" d="M 12,5.5 V 10.5 L 7.5,8 Z M 7,8 A 2,2 0 0 1 5,10 2,2 0 0 1 3,8 2,2 0 0 1 5,6 2,2 0 0 1 7,8 Z M 12,13 V 11 H 14 V 5 H 12 V 3 H 16 V 13 Z M 4,13 V 11 H 2 V 5 H 4 V 3 H 0 V 13 Z"/>
</svg>
